modules/themify-icons/icons/layout-grid2-alt.svg

<?xml version="1.0" encoding="utf-8"?>
<!-- Generated by IcoMoon.io -->
<!DOCTYPE svg PUBLIC "-//W3C//DTD SVG 1.1//EN" "http://www.w3.org/Graphics/SVG/1.1/DTD/svg11.dtd">
<svg version="1.1" xmlns="http://www.w3.org/2000/svg" xmlns:xlink="http://www.w3.org/1999/xlink" width="17" height="17" viewBox="0 0 17 17">
<g>
</g>
	<path d="M0 0h7v7h-7v-7zM9 0v7h7v-7h-7zM0 16h7v-7h-7v7zM9 16h7v-7h-7v7z" fill="#000000" />
</svg>

<svg xmlns="http://www.w3.org/2000/svg" width="17" height="17" viewBox="0 0 17 17"><path d="M0 0h7v7H0V0zm9 0v7h7V0H9zM0 16h7V9H0v7zm9 0h7V9H9v7z"/></svg>
